src/assets/images/earn-icon.svg

<svg width="34" height="34" viewBox="0 0 34 34" fill="none" xmlns="http://www.w3.org/2000/svg">
<g clip-path="url(#clip0_463_11002)">
<path d="M14.3615 0.401059C14.0714 1.53945 13.3691 2.37829 12.5581 2.691C12.104 2.86609 12.1064 3.50748 12.5601 3.68293C13.371 3.9965 14.0716 4.83795 14.3593 5.97702C14.4951 6.51429 15.2547 6.5142 15.3907 5.97702C15.6791 4.83819 16.3795 3.99858 17.1909 3.68708C17.6453 3.51266 17.648 2.87116 17.195 2.69515C16.3846 2.38026 15.6801 1.53966 15.3905 0.401059C15.3318 0.170076 15.134 -1.40542e-05 14.876 8.71001e-10C14.618 1.4056e-05 14.4175 0.181085 14.3615 0.401059ZM30.827 2.65572C30.537 3.79412 29.8347 4.63295 29.0237 4.94566C28.5696 5.12075 28.5721 5.76216 29.0257 5.93759C29.8366 6.25118 30.5372 7.09262 30.8249 8.23168C30.9606 8.76895 31.7203 8.76886 31.8563 8.23168C32.1446 7.09286 32.845 6.25324 33.6565 5.94174C34.1109 5.76732 34.1145 5.12606 33.6605 4.94981C32.8501 4.63515 32.1456 3.79434 31.8561 2.65572C31.7973 2.42444 31.5991 2.25418 31.3416 2.25418C31.0841 2.25418 30.8832 2.43545 30.827 2.65572ZM2.14274 8.89573C1.85272 10.0341 1.15042 10.873 0.339405 11.1857C-0.114677 11.3608 -0.112258 12.0022 0.341413 12.1776C1.1523 12.4912 1.8529 13.3326 2.14061 14.4717C2.27632 15.009 3.03596 15.0089 3.17197 14.4717C3.46032 13.3329 4.16073 12.4933 4.97221 12.1818C5.4266 12.0073 5.43021 11.3661 4.97623 11.1898C4.16581 10.8752 3.46132 10.0344 3.17185 8.89573C3.11305 8.66444 2.9148 8.49419 2.65729 8.49419C2.39979 8.49419 2.19885 8.67546 2.14274 8.89573ZM15.672 10.0931C14.6419 10.0931 13.8126 10.9224 13.8126 11.9524C13.8126 12.9825 14.6419 13.8118 15.672 13.8118H31.0782C32.1082 13.8118 32.9375 12.9825 32.9375 11.9524C32.9375 10.9224 32.1082 10.0931 31.0782 10.0931H15.672ZM10.0949 13.8108C4.52675 13.8108 0.000114869 18.3371 0.000114869 23.9054C0.000114869 29.4736 4.52675 34 10.0949 34C15.663 34 20.1886 29.4736 20.1886 23.9054C20.1886 18.3371 15.663 13.8108 10.0949 13.8108ZM16.613 14.8743C17.9649 15.8538 19.0974 17.1193 19.9001 18.593H27.8907C28.9207 18.593 29.75 17.7637 29.75 16.7336C29.75 15.7035 28.9207 14.8743 27.8907 14.8743H16.613ZM10.0918 16.2034C14.3512 16.2034 17.798 19.6575 17.798 23.9054C17.798 28.1532 14.3424 31.6073 10.0918 31.6073C5.84112 31.6073 2.39073 28.1532 2.39073 23.9054C2.39073 19.6575 5.83233 16.2034 10.0918 16.2034ZM10.0918 17.2659C6.42862 17.2659 3.45324 20.2317 3.45324 23.9054C3.45324 27.579 6.42999 30.5449 10.0918 30.5449C13.7535 30.5449 16.7355 27.579 16.7355 23.9054C16.7355 20.2317 13.7549 17.2659 10.0918 17.2659ZM10.0978 19.3898C10.3581 19.3914 10.6269 19.5693 10.6269 19.92V20.4399C11.5579 20.676 12.1175 21.3325 12.3805 22.1643C12.5618 22.8601 11.5916 23.1392 11.3647 22.4828C11.1522 21.8107 10.7293 21.4685 10.0781 21.4432C9.35426 21.45 8.79561 21.9914 8.79561 22.6821C8.79561 23.0095 8.91287 23.1115 9.07057 23.1884C9.2825 23.292 9.69473 23.3564 10.1528 23.4042C10.6109 23.4519 11.1168 23.4856 11.5919 23.7176C12.0671 23.9496 12.4625 24.4036 12.4625 25.1764C12.4624 26.2779 11.6698 27.1953 10.627 27.429V27.8907C10.627 28.5828 9.56446 28.6096 9.56446 27.8907V27.4238C8.86932 27.245 8.15795 26.7571 7.81613 25.6983C7.62317 25.0177 8.59787 24.7075 8.83088 25.3767C9.03304 26.0426 9.50991 26.4159 10.1175 26.4277C10.8413 26.4209 11.4 25.8547 11.4 25.1764C11.4 24.8145 11.2562 24.744 11.125 24.6711C10.9131 24.5676 10.5009 24.5062 10.0428 24.4584C9.58472 24.4107 9.07882 24.3771 8.60365 24.1451C8.12849 23.913 7.73312 23.4653 7.73312 22.6821C7.73312 21.5697 8.52376 20.6628 9.56446 20.4284C9.56446 20.4284 9.56446 20.0895 9.56446 19.92C9.56446 19.5631 9.83745 19.3883 10.0978 19.3898ZM20.4063 19.6554C20.8855 20.8115 21.1764 22.0633 21.2384 23.3741H32.1415C33.1716 23.3741 34.0009 22.5449 34.0009 21.5148C34.0009 20.4847 33.1716 19.6554 32.1415 19.6554H20.4063ZM21.2384 24.4366C21.1764 25.7475 20.8855 26.9992 20.4063 28.1553H32.1415C33.1716 28.1553 34.0009 27.326 34.0009 26.296C34.0009 25.2659 33.1716 24.4366 32.1415 24.4366H21.2384ZM19.901 29.2178C19.1011 30.6862 17.9738 31.948 16.6284 32.9261C16.6645 32.9281 16.6987 32.9361 16.7352 32.9361H32.1414C33.1715 32.9361 34.0008 32.1069 34.0008 31.0768C34.0008 30.0467 33.1715 29.2174 32.1414 29.2175L19.901 29.2178Z" fill="#0000FF"/>
</g>
<defs>
<clipPath id="clip0_463_11002">
<rect width="34" height="34" fill="white"/>
</clipPath>
</defs>
</svg>

<svg xmlns="http://www.w3.org/2000/svg" width="34" height="34" fill="none" viewBox="0 0 34 34"><g clip-path="url(#a)"><path fill="#00f" d="M14.362.401c-.29 1.138-.993 1.977-1.804 2.29a.531.531 0 0 0 .002.992c.811.314 1.512 1.155 1.8 2.294.135.537.895.537 1.03 0 .29-1.139.99-1.978 1.8-2.29a.532.532 0 0 0 .005-.992C16.385 2.38 15.68 1.54 15.39.401a.532.532 0 0 0-1.029 0m16.465 2.255c-.29 1.138-.992 1.977-1.803 2.29a.532.532 0 0 0 .002.992c.81.313 1.511 1.155 1.799 2.294.136.537.895.537 1.031 0 .289-1.14.989-1.979 1.8-2.29a.531.531 0 0 0 .005-.992c-.81-.315-1.515-1.156-1.805-2.294a.52.52 0 0 0-.514-.402.53.53 0 0 0-.515.402M2.143 8.896c-.29 1.138-.993 1.977-1.804 2.29a.531.531 0 0 0 .002.992c.811.313 1.512 1.155 1.8 2.294.135.537.895.537 1.031 0 .288-1.14.989-1.979 1.8-2.29a.531.531 0 0 0 .004-.992c-.81-.315-1.515-1.156-1.804-2.294a.52.52 0 0 0-.515-.402.53.53 0 0 0-.514.402m13.529 1.197c-1.03 0-1.86.83-1.86 1.86s.83 1.859 1.86 1.859h15.406c1.03 0 1.86-.83 1.86-1.86s-.83-1.859-1.86-1.859zm-5.577 3.718C4.527 13.81 0 18.337 0 23.905 0 29.474 4.527 34 10.095 34s10.094-4.526 10.094-10.095c0-5.568-4.526-10.094-10.094-10.094m6.518 1.063a11.25 11.25 0 0 1 3.287 3.719h7.99c1.03 0 1.86-.83 1.86-1.86s-.83-1.859-1.86-1.859zm-6.521 1.33a7.706 7.706 0 0 1 7.706 7.701c0 4.248-3.456 7.702-7.706 7.702S2.39 28.153 2.39 23.905a7.7 7.7 0 0 1 7.7-7.702m0 1.062a6.637 6.637 0 0 0-6.639 6.64 6.642 6.642 0 0 0 13.282 0 6.64 6.64 0 0 0-6.643-6.64m.006 2.124c.26.001.529.18.529.53v.52c.93.236 1.49.892 1.753 1.724.182.696-.788.975-1.015.319-.213-.672-.636-1.015-1.287-1.04-.724.007-1.282.548-1.282 1.24 0 .326.117.428.275.505.212.104.624.168 1.082.216s.964.082 1.439.314.87.686.87 1.458c0 1.102-.792 2.02-1.835 2.253v.462c0 .692-1.063.719-1.063 0v-.467c-.695-.179-1.406-.667-1.748-1.726-.193-.68.782-.99 1.015-.321.202.666.679 1.039 1.287 1.05.723-.006 1.282-.572 1.282-1.25 0-.363-.144-.433-.275-.506-.212-.103-.624-.165-1.082-.213s-.964-.08-1.44-.313c-.475-.232-.87-.68-.87-1.463 0-1.112.79-2.02 1.831-2.254v-.508c0-.357.273-.532.534-.53m10.308.265c.48 1.156.77 2.408.832 3.72H32.14c1.03 0 1.859-.83 1.859-1.86s-.83-1.86-1.86-1.86zm.832 4.782a11 11 0 0 1-.832 3.718H32.14c1.03 0 1.859-.829 1.859-1.859s-.83-1.86-1.86-1.86zm-1.337 4.78a11.3 11.3 0 0 1-3.273 3.71c.037.001.07.01.107.01h15.406c1.03 0 1.86-.83 1.86-1.86s-.83-1.86-1.86-1.86z"/></g><defs><clipPath id="a"><path fill="#fff" d="M0 0h34v34H0z"/></clipPath></defs></svg>
